X: 07030
T: EDNA'S JIG
C: Bob McQuillen 15 June 89
B: Bob's Note Book 7 #30
%R: jig
Z: 2021 John Chambers <jc:trillian.mit.edu>
M: 6/8
L: 1/8
K: G
E \
| DGB dBG | cde dBA | GAB ded | BGB AGE |\
| DGB dBG | cde dBA | GBd gdB | AGF G2 :|
|: B \
| dBd gdB | cde dBG | EGc BdB | GAB ABc |\
| dBd gdB | cde dBG | EGc BdB | AGA G2 :|
%%begintext align
%% Edna Kolm used to dance
%% a lot in Durham and Madbury (N.H.), and now she's been
%% making the scene in the Boston area. It's always
%% such a pleasure watching you have fun on the dance floor,
%% Edna!
%%endtext

%%sep 1 1 500

%%sep 1 1 500

